img/backgrounds/how-it-works.svg

<svg fill="none" height="1058" viewBox="0 0 947 1058" width="947" xmlns="http://www.w3.org/2000/svg"><path d="m884.7 96.3606h11.7133v11.6906h-11.7133z" stroke="#d00066" stroke-width="1.95335" transform="matrix(.77091804 -.63693435 .63693435 .77091804 141.293431 585.570298)"/><path d="m941.674 5.88136c2.055 2.48756 1.703 6.17534-.792 8.23654s-6.183 1.7116-8.238-.776c-2.055-2.4875-1.703-6.17534.792-8.2365 2.494-2.06115 6.182-1.71159 8.238.77596z" stroke="#27af3a" stroke-width="1.95335"/><path d="m754.773 195.008 11.452 1.915-11.731 9.693z" fill="#e8a100"/><g stroke-width="1.95335"><path d="m165.631 28.2002h11.7133v11.6906h-11.7133z" stroke="#d00066" transform="matrix(.93190092 .36271293 -.36271293 .93190092 21.507895 -58.156097)"/><path d="m272.404 33.8489c-1.17 3.007-4.562 4.4967-7.578 3.323-3.015-1.1738-4.508-4.5646-3.337-7.5716 1.17-3.007 4.562-4.4967 7.578-3.3229 3.015 1.1737 4.508 4.5645 3.337 7.5715z" stroke="#27af3a"/><path d="m161.556 1041.47h11.7133v11.6906h-11.7133z" stroke="#d00066" transform="matrix(.92978934 .3680921 -.3680921 .92978934 394.699831 13.654814)"/><path d="m268.295 1047.73c-1.187 3-4.588 4.47-7.597 3.28s-4.481-4.59-3.294-7.59c1.188-3 4.589-4.47 7.597-3.28 3.009 1.19 4.482 4.59 3.294 7.59z" stroke="#27af3a"/></g><path d="m12.4736 975.234 3.8458 10.956-14.14881-5.601z" fill="#e8a100"/></svg>

<svg width="947" height="1058" viewBox="0 0 947 1058" fill="none" xmlns="http://www.w3.org/2000/svg">
<rect x="884.7" y="96.3606" width="11.7133" height="11.6906" transform="rotate(-39.5636 884.7 96.3606)" stroke="#D00066" stroke-width="1.95335"/>
<path d="M941.674 5.88136C943.729 8.36892 943.377 12.0567 940.882 14.1179C938.387 16.1791 934.699 15.8295 932.644 13.3419C930.589 10.8544 930.941 7.16656 933.436 5.1054C935.93 3.04425 939.618 3.39381 941.674 5.88136Z" stroke="#27AF3A" stroke-width="1.95335"/>
<path d="M754.773 195.008L766.225 196.923L754.494 206.616L754.773 195.008Z" fill="#E8A100"/>
<rect x="165.631" y="28.2002" width="11.7133" height="11.6906" transform="rotate(21.2669 165.631 28.2002)" stroke="#D00066" stroke-width="1.95335"/>
<path d="M272.404 33.8489C271.234 36.8559 267.842 38.3456 264.826 37.1719C261.811 35.9981 260.318 32.6073 261.489 29.6003C262.659 26.5933 266.051 25.1036 269.067 26.2774C272.082 27.4511 273.575 30.8419 272.404 33.8489Z" stroke="#27AF3A" stroke-width="1.95335"/>
<rect x="161.556" y="1041.47" width="11.7133" height="11.6906" transform="rotate(21.598 161.556 1041.47)" stroke="#D00066" stroke-width="1.95335"/>
<path d="M268.295 1047.73C267.108 1050.73 263.707 1052.2 260.698 1051.01C257.689 1049.82 256.217 1046.42 257.404 1043.42C258.592 1040.42 261.993 1038.95 265.001 1040.14C268.01 1041.33 269.483 1044.73 268.295 1047.73Z" stroke="#27AF3A" stroke-width="1.95335"/>
<path d="M12.4736 975.234L16.3194 986.19L2.17059 980.589L12.4736 975.234Z" fill="#E8A100"/>
</svg>
